!!!COM: Woods, John Joseph
!!!CDT: 1849-1934
!!!OTL: National Anthem, New Zealand - God Defend New Zealand
!!!ENC: Davis, Matthew J.
!!Vocal Line Only
**kern
*clefG2
*k[f#]
*G:
*M4/4
=1-
4g
4f#
4g
4d
=2
4b
8.b
16a
4.g8r
=3
4e
4cc
4d
4b
=4
8a
8g
8f#
8e
4.d
8r
=5
4g
4d
4e
4f#
=6
4g
4a
4.b
8r
=7
4b
4g
4e
4a
=8
4g
4f#
4.g
8r
=9
4dd
4dd
4g
4b
=10
4dd
8dd
8ee
4.dd
8r
=11
4a
4b
8cc
8b
8a
8g
=12
8f#
8g
8f#
8e
4.d
8r
=13
4g
4d
4e
4f#
=14
4g
4a
2dd
=15
4dd
4cc
4b
4cc
=16
4b
4a
2g
==|!
*-
